src/main/resources/icons/SwiftPackageManagerIcons/icons/loadSwiftPackageManagerChanges_dark.svg

<svg width="16" height="16" viewBox="0 0 16 16" fill="none" xmlns="http://www.w3.org/2000/svg">
<path fill-rule="evenodd" clip-rule="evenodd" d="M11.0474 2.90329L6 5.4763V6.99843C6.96314 6.63082 9.14862 5.8968 11.0474 5.9835V2.90329Z" fill="#AFB1B3"/>
<path fill-rule="evenodd" clip-rule="evenodd" d="M5 5.4763L7.67708e-05 2.90329V8.42699L5 11V5.4763Z" fill="#AFB1B3"/>
<path fill-rule="evenodd" clip-rule="evenodd" d="M10.7074 2.20655L5.52362 0L0.339838 2.20655L5.52362 4.77956L10.7074 2.20655Z" fill="#AFB1B3"/>
<path fill-rule="evenodd" clip-rule="evenodd" d="M15.6456 12.0155L15.6456 15.5871L14.3872 14.3277C13.6029 15.1282 12.4916 15.6008 11.2845 15.5375C9.29176 15.4331 7.71156 13.9037 7.4795 11.9885L8.84058 12.1068C9.10844 13.2635 10.1149 14.1522 11.3598 14.2175C12.1761 14.2603 12.9276 13.9402 13.4574 13.3982L12.0739 12.0155L15.6456 12.0155ZM11.708 7.45646C13.6743 7.5595 15.2389 9.04985 15.503 10.9293L14.1505 10.8115C13.8623 9.68402 12.8692 8.82461 11.6458 8.7605C10.7935 8.71583 10.012 9.06674 9.47952 9.65269L10.9131 11.0862L7.34133 11.0862L7.34133 7.51451L8.54986 8.7239C9.33683 7.88856 10.4722 7.39169 11.708 7.45646Z" fill="#3592C4"/>
</svg>

<svg width="16" height="16" viewBox="0 0 16 16" fill="none" xmlns="http://www.w3.org/2000/svg"><rect id="frame" width="16" height="16" fill="none"/><path fill-rule="evenodd" clip-rule="evenodd" d="M11.047 2.903L6 5.476v1.522c.963-.367 3.149-1.101 5.047-1.014v-3.08z" fill="#AFB1B3"/><path fill-rule="evenodd" clip-rule="evenodd" d="M5 5.476L0 2.903v5.524L5 11V5.476z" fill="#AFB1B3"/><path fill-rule="evenodd" clip-rule="evenodd" d="M10.707 2.207L5.524 0 .34 2.207 5.524 4.78l5.183-2.573z" fill="#AFB1B3"/><path fill-rule="evenodd" clip-rule="evenodd" d="M15.646 12.015v3.572l-1.259-1.26a4.047 4.047 0 0 1-6.908-2.34l1.362.12a2.734 2.734 0 0 0 4.616 1.291l-1.383-1.383h3.572zm-3.938-4.559a4.047 4.047 0 0 1 3.795 3.473l-1.353-.117a2.734 2.734 0 0 0-4.67-1.16l1.433 1.434H7.341V7.515L8.55 8.724a4.037 4.037 0 0 1 3.158-1.268z" fill="#3592C4"/></svg>
